static/logos/ibm-glyph-white.svg

<svg width="161" height="64" viewBox="0 0 161 64" fill="none" xmlns="http://www.w3.org/2000/svg">
<path d="M2.14966 0.660645V4.94864H32.6505V0.660645H2.14966ZM36.9737 0.660645V4.94864H80.4425C80.4425 4.94864 76.0025 0.660645 70.1225 0.660645H36.9737ZM88.9673 0.660645V4.94864H115.262L113.702 0.660645H88.9673ZM134.119 0.660645L132.558 4.94864H158.618V0.660645H134.116H134.119ZM2.14966 8.99984V13.2878H32.6489V8.99984H2.14966ZM36.9721 9.00624V13.2862H85.4809C85.4809 13.2862 84.9145 9.98544 83.9273 9.00624H36.9721ZM88.9657 9.00624V13.2862H118.166L116.722 9.00624H88.9657ZM130.994 9.00624L129.55 13.2862H158.615V9.00624H130.994ZM10.9161 17.3406V21.6334H24.1257V17.3406H10.9161ZM45.7401 17.3406V21.6334H58.9497V17.3406H45.7401ZM71.8009 17.3406V21.6334H85.0105C85.0105 21.6334 85.8505 19.3662 85.8505 17.3406H71.8009ZM97.7369 17.3406V21.6334H121.135L119.575 17.3406H97.7369ZM128.121 17.3406L126.553 21.6334H150.089V17.3406H128.121ZM10.9193 25.6862V29.9742H24.1289V25.6862H10.9193ZM45.7433 25.6862V29.9742H79.4841C79.4841 29.9742 82.3033 27.7742 83.2041 25.6862H45.7417H45.7433ZM97.7369 25.6862V29.9742H110.948V27.5838L111.788 29.9726H135.988L136.887 27.5838V29.9726H150.098V25.6846H125.298L123.982 29.3166L122.662 25.6846H97.7369V25.6862ZM10.9161 34.0254V38.3134H24.1257V34.0254H10.9161ZM45.7401 34.0254V38.3134H83.2009C82.3001 36.2334 79.4793 34.0254 79.4793 34.0254H45.7401ZM97.7337 34.0254V38.3134H110.945V34.0254H97.7337ZM113.345 34.0254L114.945 38.3134H133.089L134.609 34.0254H113.345ZM136.881 34.0254V38.3134H150.09V34.0254H136.881ZM10.9177 42.3678V46.6558H24.1289V42.3678H10.9177ZM45.7417 42.3678V46.6558H58.9529V42.3678H45.7417ZM71.8025 42.3678V46.6558H85.8505C85.8505 44.6318 85.0105 42.3678 85.0105 42.3678H71.8025ZM97.7385 42.3678V46.6558H110.948V42.3678H97.7385ZM116.346 42.3678L117.895 46.6558H130.055L131.615 42.3678H116.346ZM136.882 42.3678V46.6558H150.092V42.3678H136.882ZM2.39446 50.7038V54.9982H32.8937V50.7038H2.39446ZM36.9801 50.7038V54.9982H83.9369C84.9241 54.0142 85.4889 50.7038 85.4889 50.7038H36.9801ZM89.2121 50.7038V54.9982H110.942V50.7038H89.2121ZM119.351 50.7038L120.945 54.9982H127.132L128.626 50.7038H119.351ZM136.884 50.7038V54.9982H158.86V50.7038H136.884ZM2.39446 59.0526V63.3407H32.8937V59.0526H2.39446ZM36.9801 59.0526V63.3326H70.1225C76.0025 63.3326 80.4425 59.0526 80.4425 59.0526H36.9801ZM89.2121 59.0526V63.3407H110.942V59.0526H89.2121ZM122.372 59.0526L123.902 63.3279L124.166 63.3342L125.721 59.0542L122.372 59.0526ZM136.886 59.0526V63.3407H158.862V59.0526H136.886Z" fill="white"/>
</svg>

<svg xmlns="http://www.w3.org/2000/svg" width="161" height="64" fill="none"><path fill="#fff" d="M2.15.66V4.95h30.5V.66zm34.824 0V4.95h43.469S76.003.66 70.123.66zm51.993 0V4.95h26.295L113.702.66zm45.152 0-1.561 4.289h26.06V.66h-24.502zM2.149 9v4.288h30.5V9zm34.823.006v4.28h48.509s-.566-3.3-1.554-4.28zm51.994 0v4.28h29.2l-1.444-4.28zm42.028 0-1.444 4.28h29.065v-4.28zM10.916 17.341v4.292h13.21v-4.292zm34.824 0v4.292h13.21v-4.292zm26.06 0v4.292h13.21s.84-2.267.84-4.292zm25.937 0v4.292h23.398l-1.56-4.292zm30.384 0-1.568 4.292h23.536v-4.292zM10.919 25.686v4.288h13.21v-4.288zm34.824 0v4.288h33.741s2.82-2.2 3.72-4.288H45.742zm51.994 0v4.288h13.211v-2.39l.84 2.389h24.2l.899-2.39v2.39h13.211v-4.288h-24.8l-1.316 3.632-1.32-3.632H97.737zm-86.82 8.34v4.287h13.209v-4.288zm34.823 0v4.287H83.2c-.9-2.08-3.72-4.288-3.72-4.288zm51.994 0v4.287h13.211v-4.288zm15.611 0 1.6 4.287h18.144l1.52-4.288zm23.536 0v4.287h13.209v-4.288zM10.918 42.367v4.288h13.21v-4.288zm34.824 0v4.288h13.21v-4.288zm26.06 0v4.288H85.85c0-2.024-.84-4.288-.84-4.288zm25.936 0v4.288h13.21v-4.288zm18.608 0 1.549 4.288h12.16l1.56-4.288zm20.536 0v4.288h13.21v-4.288zM2.394 50.704v4.294h30.5v-4.294zm34.586 0v4.294h46.957c.987-.984 1.552-4.294 1.552-4.294zm52.232 0v4.294h21.73v-4.294zm30.139 0 1.594 4.294h6.187l1.494-4.294zm17.533 0v4.294h21.976v-4.294zM2.394 59.053v4.288h30.5v-4.288zm34.586 0v4.28h33.143c5.88 0 10.32-4.28 10.32-4.28zm52.232 0v4.288h21.73v-4.288zm33.16 0 1.53 4.275.264.006 1.555-4.28zm14.514 0v4.288h21.976v-4.288z"/></svg>
